X:1
T:Title
%%score { ( 1 3 ) | 2 }
L:1/8
M:4/4
K:Eb
V:1 treble nm="Grand Piano"
V:3 treble 
V:2 bass 
V:1
 z4 z2[Q:1/4=84] [CE][CA] | [Ec][D=B][Ec][Ee] [CA]2 _Bc | [FB][F=A][FB][F_d] [B,F]2 [B,D_A][B,DA] | %3
 [B,EG][=A,E_G][B,E=G][CEA] [_DGB][C_G=A][D=GB][B,E] | [Ec]6 [CE][CA] | %5
 [Ec][D=B][Ec][Ee] [CA]2 _Bc | [FB][F=A][FB][F_d] F2 [D_A][DA] | [EG][GB][Ge][Gd] [G_d]G c>B | %8
[M:3/4] [CA]6 |[M:1/4] ce |[M:4/4] [Ge][G_d][GB][EG] [Ge][Gd][_DGB][B,DG] | [_DF]2 [CE]2 c2 ce | %12
 [Ge][G_d][GB][EG] [Ge][Gd][GB][G=B] | c6 z2 | [Ec][D=B][Ec][Ee] [CA]2 _Bc | %15
 [FB][F=A][FB][F_d] F2 [D_A][DA] | [EG][GB][Ge][Gd] [G_d]G c>B |[M:7/4] [CA]6 z2 z2 z4 |] %18
V:2
 z4 z2 [A,,A,][A,,A,] | [A,,A,][A,,A,][A,,A,][A,,C] [A,,A,]2 [A,_D][A,E] | %2
 [_D,_D][D,D][D,D][D,B,] =D,2 B,,B,, | E,E,E,E, E,E,E,G, | A,6 [A,,A,][A,,A,] | %5
 [A,,A,][A,,A,][A,,A,][A,,C] [A,,A,]2 [A,_D][A,E] | %6
 [_D,_D][D,D][D,D][D,B,] [=D,B,]2 [B,,B,][B,,B,] | %7
 [E,B,][E,E][E,B,][E,B,] [E,B,][E,B,E] [E,G,E]>[E,G,_D] |[M:3/4] [A,,A,]6 | %9
[M:1/4][K:treble] [A,E][A,CA] |[M:4/4][K:bass] [E,B,][E,B,][E,_D][E,B,] [E,B,][E,B,]E,E, | %11
 A,A,A,A,[K:treble] [A,E]2 [A,E][A,CA] | [E,B,][E,B,][E,_D][E,B,] [E,B,][E,B,][E,E][E,E] | %13
 A,,[A,,E,][A,,F,][A,,G,] [A,,A,]2 [A,,A,][A,,A,] | %14
 [A,,A,][A,,A,][A,,A,][A,,C] [A,,A,]2 [A,_D][A,E] | %15
 [_D,_D][D,D][D,D][D,B,] [=D,B,]2 [B,,B,][B,,B,] | %16
 [E,B,][E,E][E,B,][E,B,] [E,B,][E,B,E] [E,G,E]>[E,G,_D] |[M:7/4] [A,,A,]6 z2 z2 z4 |] %18
V:3
 x8 | x8 | x8 | x8 | x8 | x8 | x8 | x8 |[M:3/4] x6 |[M:1/4] x2 |[M:4/4] x8 | x8 | x8 | %13
 [EA]AGF E2 [CE][CA] | x8 | x8 | x8 |[M:7/4] x14 |] %18

